X: 6
% Old value - X: 2
T: Con Cassidy's
T: Tracey's Set
R: jig
M: 6/8
L: 1/8
K: Gmaj
|:B^AB cBc | dBg d2 g | fed cAF | GDg d2 c |
B^AB cBc | dBg d2 g |fed cAF|1 ~G3 G2A:|2 ~G3 G2d||
|:gGG fGG | efg d2 c | BA^G Aag | fe^d efg |
a2 f gfe | fed ff/g/a | gfe def |1 gGG G2d:|2 gGG G2A||

